images/email.svg

<svg width="20" height="16" viewBox="0 0 20 16" fill="none" xmlns="http://www.w3.org/2000/svg">
<path d="M19.7057 13.0146C19.7057 13.4402 19.586 13.8347 19.3943 14.1818L13.2652 7.32419L19.3278 2.01992C19.5636 2.39418 19.7057 2.83382 19.7057 3.3089V13.0146ZM9.99985 8.56932L18.4358 1.18806C18.0896 0.998544 17.6998 0.882324 17.2793 0.882324H2.7204C2.29937 0.882324 1.90942 0.998544 1.56464 1.18806L9.99985 8.56932ZM12.3517 8.12277L10.399 9.83242C10.2848 9.93191 10.1426 9.9816 9.99985 9.9816C9.85702 9.9816 9.7148 9.93191 9.60058 9.83242L7.64745 8.12269L1.44082 15.0679C1.81285 15.3013 2.24884 15.4411 2.72036 15.4411H17.2793C17.7507 15.4411 18.1869 15.3013 18.5588 15.0679L12.3517 8.12277ZM0.67193 2.01988C0.43613 2.39414 0.293945 2.83378 0.293945 3.3089V13.0146C0.293945 13.4402 0.413086 13.8347 0.605559 14.1818L6.73393 7.32303L0.67193 2.01988Z" fill="#251D1A"/>
</svg>

<svg width="20" height="16" fill="none" xmlns="http://www.w3.org/2000/svg"><path d="M19.706 13.015c0 .425-.12.82-.312 1.167l-6.129-6.858 6.063-5.304c.236.374.378.814.378 1.289v9.706zM10 8.569l8.436-7.38a2.396 2.396 0 00-1.157-.307H2.72c-.42 0-.81.117-1.155.306L10 8.57zm2.352-.446l-1.953 1.71a.606.606 0 01-.798 0l-1.954-1.71-6.206 6.945a2.4 2.4 0 001.28.373h14.558a2.4 2.4 0 001.28-.373l-6.207-6.945zM.672 2.02a2.41 2.41 0 00-.378 1.289v9.706c0 .425.12.82.312 1.167l6.128-6.859L.672 2.02z" fill="#251D1A"/></svg>
